X:1
T:Title
%%score ( 1 2 ) { 3 | 4 }
L:1/8
Q:1/4=90
M:6/8
K:G
V:1 treble nm="Grand Piano, Soprano"
V:2 treble 
V:3 bass nm="Choir Pad, How Shall I My Savior Set Forth"
V:4 bass 
V:1
 D[DB]>[Dc] [DB][DA]>[DB] | [DA] [DG]2- [DG] [B,D]2 | [DG][GB]>[FA] [GB][Gd]>[Fc] | %3
w: By~John~William~McGarvey,~Jr. * * * * *|||
 [GB] [FA]2- [FA]2- [FA]/ z/ | D[GB]>[FA] [GB][Bd]>[Ac] | [GB] A2- A C2 | %6
w: |||
 [Ec][DB]>[DA] [DG][DA][DE] | [DF] [DG]2- [DG]2- [DG]/ z/ | D [FA]2- [FA]2 [FB] | %9
w: |||
 [DA] [DG]2- [DG] D2 | D [Ac]2- [Ac]2 [Bd] | [ce] d2- d G2 | [GB] [Bd]2- [Bd]2- [Bd]/[Ac]/ | %13
w: ||||
 [GB][EA]>[E^G] [EA] [Ac]2 | z .G2 z3 | [FA] G2- G3- | G3 z3 |] %17
w: ||||
V:2
 x6 | x6 | x6 | x6 | x6 | z E2- E2- E/ z/ | x6 | x6 | x6 | x6 | x6 | z B2- B2- B/ z/ | x6 | x6 | %14
 [EA]D-[DF] [DG] [FB]2 | x6 | x6 |] %17
V:3
 D,G,>A, B,C>D | C B,2- B, G,2 | B,[K:treble]D>D DD>D | D D2- D2- D/ z/ | DD>D DD>D | %5
 D C2- C[K:bass] G,2 | G,G,>A, B,CC | C B,2- B,2- B,/ z/ | B,[K:treble]C>C CCD | %9
 C[K:bass]B,>B, B, B,2 | z D>[K:treble]D D D2 | DD>D D D2 | z D>D DD>D | DC>B, C E2 | %14
 C[K:bass]B,A, B, D2 | C B,2- B,3- | B,3 z3 |] %17
V:4
 z z z/ G,/ G,G,>G, | G, G,2- G, z z | G,G,>G, G,B,>A, | G, D,2- D,2- D,/ z/ | D,G,>G, G,G,,>A,, | %5
 B,, C,2- C,2- C,/ z/ | C,D,>D, D,D,D, | D, G,,2- G,,2- G,,/ z/ | G,D,>D, D, D,2 | D,G,>G, G, G,2 | %10
 z D,>D, D, D,2 | D,G,>G, G, G,2 | z G,>G, G,G,>G, | G,C,>C, C, A,,2 | A,, D,2 D, D,2 | %15
 D, G,,2- G,,3- | G,,3 z3 |] %17

